X:258
T: Shiyue ge
N: C1755
O: China, Shandong Zibo
S: III, 320]
R: Xiaodiao]
M: 2/4
L: 1/16
K: F
dcdfc2A2 | dcdfc2A2 | d2cdf2A2 | GAGFG4
G3Ac4 | f3dc4 | G2GAGFD2 | C8
F2CDF4 | G3Ac4 | dfA4G2 | F2F4z2
G3Ac2dc | G2AGD2C2 | F3AGFD2 | C8
G2F2G2A2 | c2f6 | dfA4G2 | F2F4z2
G3Ac2dc | G2AGD2C2 | F3AGFD2 | C8

